icons/bell.svg

<svg xmlns="http://www.w3.org/2000/svg" width="24" height="24" viewBox="0 0 24 24">
  <path d="M12.0860889,2 C15.1120285,2 17.6644346,4.25321866 18.0397562,7.25579159 L18.0397562,7.25579159 L18.464,10.65 L20.8602044,14.3777272 C21.7229774,15.7198185 21.3807589,17.4907213 20.1097078,18.4201056 L20.1097078,18.4201056 L19.9589418,18.5235354 C19.4750498,18.8346089 18.9119239,19 18.336669,19 L18.336669,19 L15.8737782,19.0007613 C15.4294724,20.7256022 13.8635639,22 11.9999911,22 C10.1498978,22 8.58304329,20.7406098 8.13026991,19.0003953 L5.663331,19 C4.00647675,19 2.663331,17.6568542 2.663331,16 C2.663331,15.4247451 2.82872214,14.8616192 3.13979557,14.3777272 L3.13979557,14.3777272 L5.535,10.65 L5.96024383,7.25579159 C6.32568856,4.33223373 8.75514199,2.1191094 11.676036,2.0046538 L11.676036,2.0046538 L11.9139111,2 Z M13.731,19 L10.269,19 L10.3124679,19.0742854 C10.6429261,19.5919665 11.2050445,19.9464325 11.8498089,19.9944293 L11.8498089,19.9944293 L12,20 C12.7029079,20 13.3211231,19.6373876 13.6777876,19.0890209 L13.6777876,19.0890209 L13.731,19 Z"/>
</svg>

<svg xmlns="http://www.w3.org/2000/svg" viewBox="0 0 24 24">
  <path d="M12.09 2a6 6 0 0 1 5.95 5.26l.42 3.39 2.4 3.73a3 3 0 0 1-.75 4.04l-.15.1a3 3 0 0 1-1.62.48h-2.47a4 4 0 0 1-7.74 0H5.66a3 3 0 0 1-2.52-4.62l2.4-3.73.42-3.4A6 6 0 0 1 11.68 2h.23zm1.64 17h-3.46l.04.07a2 2 0 0 0 1.54.92L12 20a2 2 0 0 0 1.68-.91l.05-.09z"/>
</svg>
